src/assets/images/tech/django.svg

<svg width="32" height="32" viewBox="0 0 32 32" fill="none" xmlns="http://www.w3.org/2000/svg">
<g id="django">
<g id="django_2">
<path id="Vector" d="M12.9767 0H19V24.2847C15.9148 24.798 13.6435 25 11.1861 25C3.82946 24.9932 0 22.1021 0 16.5496C0 11.1997 4.06201 7.72762 10.3566 7.72762C11.3334 7.72762 12.0775 7.79525 12.9767 7.99782V0ZM13.1878 12.3742C12.4824 12.1715 11.901 12.104 11.1568 12.104C8.11035 12.104 6.35067 13.7386 6.35067 16.6034C6.35067 19.3925 8.0329 20.9326 11.1181 20.9326C11.7847 20.9326 12.3274 20.8996 13.1878 20.7983V12.3742Z" fill="#2BA977"/>
<path id="Vector_2" d="M29 8.28648V20.3103C29 24.4511 28.6409 26.4424 27.5868 28.1592C26.6031 29.8097 25.3071 30.8505 22.6291 32L17 29.7089C19.6779 28.634 20.9739 27.6842 21.8016 26.2347C22.6681 24.7524 22.9414 23.0356 22.9414 18.5201V8.28658H29V8.28648ZM22.33 0H28.3964V5.32386H22.33V0Z" fill="#2BA977"/>
</g>
</g>
</svg>

<svg xmlns="http://www.w3.org/2000/svg" width="32" height="32" fill="none"><g fill="#2BA977"><path d="M12.977 0H19v24.285c-3.085.513-5.357.715-7.814.715C3.83 24.993 0 22.102 0 16.55c0-5.35 4.062-8.822 10.357-8.822.976 0 1.72.067 2.62.27zm.21 12.374c-.705-.203-1.286-.27-2.03-.27-3.047 0-4.806 1.635-4.806 4.5 0 2.788 1.682 4.329 4.767 4.329.667 0 1.21-.033 2.07-.135z"/><path d="M29 8.286V20.31c0 4.141-.36 6.132-1.413 7.85-.984 1.65-2.28 2.69-4.958 3.84L17 29.709c2.678-1.075 3.974-2.025 4.802-3.474.866-1.483 1.14-3.2 1.14-7.715V8.287zM22.33 0h6.066v5.324H22.33z"/></g></svg>
